X:1365
T:Belledune Quickstep
M:2/4
L:1/16
K:D
(3ABc|d2c2 B2A2|F6 (3ABc|d2cd e2d2|B6cd|
e2d2 c2B2|c4 cdcB|A2g2 f2e2|d6:|
|:AF|D2FA DAFA|G2BG dGBG|A2ce Aece|dfed cBAF|
D2FA DAFA|G2BG dGBG|Acef gece|d2f2 d2:|


